X: 100402
M: C|
L: 1/8
K: F
(uc>B) |\
|: ((3ucde) |\
fcAc fagf | gece gbag | afge fdgf | e2c2 c2(fe) |\
dcBA B2(ba) | gfed c2(dc) | BAGF EdcB | A2F2 F2 :|


